src/images/app-icons/light-theme/017.svg

<svg xmlns="http://www.w3.org/2000/svg" xmlns:xlink="http://www.w3.org/1999/xlink" viewBox="0 0 32 32"><defs><linearGradient id="017_svg__a" x1="85" y1="-27.5" x2="93" y2="-27.5" gradientTransform="translate(-80 47)" gradientUnits="userSpaceOnUse"><stop offset=".001" stop-opacity="0"/><stop offset=".7"/></linearGradient><linearGradient id="017_svg__b" x1="-918" y1="7007.5" x2="-910" y2="7007.5" gradientTransform="translate(937 -6988)" xlink:href="#017_svg__a"/><linearGradient id="017_svg__d" y1="32" x2="32" gradientUnits="userSpaceOnUse"><stop offset=".1" stop-color="#08bdba"/><stop offset=".9" stop-color="#0f62fe"/></linearGradient><mask id="017_svg__c" x="0" y="0" width="32" height="32" maskUnits="userSpaceOnUse"><path d="M24.8 9.136a8.994 8.994 0 00-17.6 0A6.5 6.5 0 008.5 22H12v-2H8.5a4.5 4.5 0 01-.356-8.981l.816-.064.1-.812a6.994 6.994 0 0113.884 0l.1.812.816.064A4.5 4.5 0 0123.5 20H20v2h3.5a6.5 6.5 0 001.3-12.864z" fill="#fff"/><path fill="url(#017_svg__a)" d="M5 16h8v7H5z" data-name="Gradients (black)"/><path transform="rotate(180 23 19.5)" fill="url(#017_svg__b)" d="M19 16h8v7h-8z" data-name="Gradients (black)"/></mask></defs><g data-name="Layer 2"><g data-name="Light theme icons"><g mask="url(#017_svg__c)"><path fill="url(#017_svg__d)" d="M0 0h32v32H0z"/></g><path d="M24 24h-7v-4h3v-8h-8v8h3v4H8a2 2 0 00-2 2v4h2v-4h7v4h2v-4h7v4h2v-4a2 2 0 00-2-2zM14 14h4v4h-4z" fill="#001d6c"/></g></g></svg>

<svg xmlns="http://www.w3.org/2000/svg" xmlns:xlink="http://www.w3.org/1999/xlink" viewBox="0 0 32 32"><defs><style>.cls-1{fill:#fff;}.cls-2{fill:url(#linear-gradient);}.cls-3{fill:url(#linear-gradient-2);}.cls-4{mask:url(#mask);}.cls-5{fill:url(#linear-gradient-3);}.cls-6{fill:#001d6c;}</style><linearGradient id="linear-gradient" x1="85" y1="-27.5" x2="93" y2="-27.5" gradientTransform="translate(-80 47)" gradientUnits="userSpaceOnUse"><stop offset="0.001" stop-opacity="0"/><stop offset="0.7"/></linearGradient><linearGradient id="linear-gradient-2" x1="-918" y1="7007.5" x2="-910" y2="7007.5" gradientTransform="translate(937 -6988)" xlink:href="#linear-gradient"/><mask id="mask" x="0" y="0" width="32" height="32" maskUnits="userSpaceOnUse"><path class="cls-1" d="M24.8,9.136a8.994,8.994,0,0,0-17.6,0A6.5,6.5,0,0,0,8.5,22H12V20H8.5a4.5,4.5,0,0,1-.356-8.981l.816-.064.1-.812a6.994,6.994,0,0,1,13.884,0l.1.812.816.064A4.5,4.5,0,0,1,23.5,20H20v2h3.5A6.5,6.5,0,0,0,24.8,9.136Z"/><g id="Gradients_black_" data-name="Gradients (black)"><rect class="cls-2" x="5" y="16" width="8" height="7"/></g><g id="Gradients_black_2" data-name="Gradients (black)"><rect class="cls-3" x="19" y="16" width="8" height="7" transform="translate(46 39) rotate(180)"/></g></mask><linearGradient id="linear-gradient-3" y1="32" x2="32" gradientUnits="userSpaceOnUse"><stop offset="0.1" stop-color="#08bdba"/><stop offset="0.9" stop-color="#0f62fe"/></linearGradient></defs><g id="Layer_2" data-name="Layer 2"><g id="Light_theme_icons" data-name="Light theme icons"><g class="cls-4"><rect id="Color" class="cls-5" width="32" height="32"/></g><path class="cls-6" d="M24,24H17V20h3V12H12v8h3v4H8a2,2,0,0,0-2,2v4H8V26h7v4h2V26h7v4h2V26A2,2,0,0,0,24,24ZM14,14h4v4H14Z"/></g></g></svg>
